X: 147
T: Follow Me up to Carlow
M:6/8
R:jig
L:1/8
Z:added by Alf warnock alf0@rogers.com - www.alfwarnock.info/alfs
K:Bm
|:"Bm"BBB B2A|"F#m"F2^G A3| "Bm"B2B d2e|"F#m"f2e d2c|
"Bm"B2B B2A|"F#m"F2^G A3| "Bm"B2B "A"c2A|"Bm"B6:|
"F#m"f2^g a3| f2^g a3| "A"c2c c2B|A2B c3|
"F#m"f2^g a2^g|f2^g a3| "A"c2c cBA|"Bm"B3 B3||
"F#m"f2^g a2a|f2^g a3| "A"c2c c2B|A2B c3|
"F#m"f2^g a2f|ba^g a3| "A"c2c cBA|"Bm"B3 B3|]
%%text Play 1st part of Merrily Kiss .. in D with repeat after chorus.
M:12/8
|:A|"D"def A2f "G"g2e "D"fdB|"D"def ABd "A"~e3 e2A|\
"D"def A2f "G"g2e "D"fdB|"D"def "A"A2B "D"d3 d2:|

